MoyalShoham/Agent/crepty-agent-v2/futures_trades_log.csv
timestamp,symbol,signal,price,atr,target_qty,prev_pos,new_pos,side,order_id,realized_pnl,paper_trade
2025-08-11T16:24:20.679847,BTCUSDT,buy,120560.0,686.7228571428568,0.0010596741098478077,0.0,0.0010596741098478077,,SIM-BTCUSDT-1754929460678,0.0,True
2025-08-11T16:24:21.597013,ETHUSDT,buy,4344.02,48.09785714285714,0.015129622722975486,0.0,0.015129622722975486,,SIM-ETHUSDT-1754929461595,0.0,True
2025-08-11T16:24:22.471828,XRPUSDT,buy,3.2066,0.04162142857142857,17.483840832280762,0.0,17.483840832280762,,SIM-XRPUSDT-1754929462470,0.0,True
2025-08-11T16:24:23.481897,SOLUSDT,sell,180.09,2.0657142857142867,-0.35227641953561534,0.0,-0.35227641953561534,,SIM-SOLUSDT-1754929463480,0.0,True
2025-08-11T16:24:24.391256,SHIBUSDT,buy,1.334e-05,1.7214285714285708e-07,4227317.034427388,0.0,4227317.034427388,,SIM-SHIBUSDT-1754929464390,0.0,True
2025-08-11T16:27:37.415644,BTCUSDT,buy,120498.26,686.7228571428568,0.0010581040431043097,0.0,0.0010581040431043097,,SIM-BTCUSDT-1754929657414,0.0,True
2025-08-11T16:27:38.932130,ETHUSDT,buy,4344.89,48.09785714285714,0.015107205908920803,0.0,0.015107205908920803,,SIM-ETHUSDT-1754929658931,0.0,True
2025-08-11T16:27:40.416089,XRPUSDT,buy,3.2059,0.04162142857142857,17.45793588963446,0.0,17.45793588963446,,SIM-XRPUSDT-1754929660413,0.0,True
2025-08-11T16:27:41.946529,SOLUSDT,sell,179.96,2.0814285714285723,-0.34909880723713094,0.0,-0.34909880723713094,,SIM-SOLUSDT-1754929661944,0.0,True
2025-08-11T16:27:43.452788,SHIBUSDT,buy,1.334e-05,1.7214285714285708e-07,4221053.627755188,0.0,4221053.627755188,,SIM-SHIBUSDT-1754929663451,0.0,True
2025-08-11T16:31:36.967838,BTCUSDT,buy,120578.23,686.7228571428568,0.001,0.0,0.001,,SIM-BTCUSDT-1754929896965,0.0,True
2025-08-11T16:31:37.885233,ETHUSDT,buy,4352.18,48.09785714285714,0.015,0.0,0.015,,SIM-ETHUSDT-1754929897883,0.0,True
2025-08-11T16:31:38.730653,XRPUSDT,buy,3.2081,0.04162142857142857,17.4,0.0,17.4,,SIM-XRPUSDT-1754929898729,0.0,True
2025-08-11T16:31:39.567455,SOLUSDT,sell,180.05,2.0814285714285723,-0.34,0.0,-0.34,,SIM-SOLUSDT-1754929899565,0.0,True
2025-08-11T16:31:40.535773,SHIBUSDT,buy,1.335e-05,1.7214285714285708e-07,4228586.307452284,0.0,4228586.307452284,,SIM-SHIBUSDT-1754929900532,0.0,True
2025-08-11T17:32:22.384150,XRPUSDT,buy,3.2011,0.04450000000000002,2.2426401696629203,0.0,2.2,BUY,115822198494,0.0,False
2025-08-11T17:32:23.261673,SOLUSDT,sell,178.87,2.136428571428571,-0.04671229774991642,0.0,-0.04,SELL,135681394491,0.0,False
2025-08-11T17:37:36.561002,XRPUSDT,buy,3.1949,0.04450000000000002,2.241843158426965,0.0,2.2,BUY,115822998816,0.0,False
2025-08-11T17:37:37.463754,SOLUSDT,sell,178.77,2.136428571428571,-0.04669569668004012,0.0,-0.04,SELL,135682426831,0.0,False
2025-08-11T17:43:33.933510,ETHUSDT,buy,4306.47,50.06785714285719,0.006985052151365997,0.0,0.006,BUY,8389765936007853047,0.0,False
2025-08-11T17:43:34.800890,XRPUSDT,buy,3.1924,0.04450000000000002,7.859024567415728,0.0,7.8,BUY,115823743639,0.0,False
2025-08-11T17:43:35.683626,SOLUSDT,sell,178.73,2.136428571428571,-0.16369683401872287,0.0,-0.16,SELL,135683428644,0.0,False
2025-08-11T17:46:15.075018,ETHUSDT,hold,4300.59,50.06785714285719,0.0,0.006,0,SELL,8389765936008850105,-0.03528000000000066,False
2025-08-11T17:48:04.474061,XRPUSDT,buy,3.18,0.04450000000000002,7.849304628089885,0.0,7.8,BUY,115824308514,0.0,False
2025-08-11T17:48:05.323039,SOLUSDT,sell,178.22,2.156428571428571,-0.16197803190791657,0.0,-0.16,SELL,135684213056,0.0,False
2025-08-11T18:01:10.541242,XRPUSDT,buy,3.1857,0.04360000000000005,8.008275801605496,0.0,8.0,BUY,115825848984,0.0,False
2025-08-11T18:01:11.395768,SOLUSDT,sell,177.79,2.095714285714286,-0.1666070739366053,0.0,-0.16,SELL,135686353589,0.0,False
2025-08-11T18:02:15.385892,XRPUSDT,buy,3.1857,0.04378571428571432,11.961463823735718,8.0,11.9,BUY,115825997732,0.0,False
2025-08-11T18:04:23.391289,ETHUSDT,buy,4282.59,47.89642857142859,0.007289913577361865,0.0,0.007,BUY,8389765936018021255,0.0,False
2025-08-11T18:04:24.305351,XRPUSDT,sell,3.1797,0.04397142857142861,-7.940629547270948,11.9,-7.9,SELL,115826256476,-0.07139999999999742,False
2025-08-11T18:04:56.682006,XRPUSDT,buy,3.1697,0.04475000000000003,7.802476535195525,-7.9,7.799999999999999,BUY,115826345112,-0.15039999999999576,False
2025-08-11T18:06:01.897625,XRPUSDT,buy,3.1734,0.04512857142857147,11.605535492165233,7.799999999999999,11.599999999999998,BUY,115826506534,-0.15039999999999576,False
2025-08-11T18:06:39.713314,XRPUSDT,sell,3.1741,0.04512857142857147,-7.737023661443488,11.599999999999998,-7.700000000000003,SELL,115826614278,-0.11341999999999419,False
2025-08-11T18:07:12.106476,XRPUSDT,buy,3.1734,0.04512857142857147,7.737023661443488,-7.700000000000003,7.6999999999999975,BUY,115826678418,-0.11880999999999531,False
2025-08-11T18:08:16.499916,XRPUSDT,sell,3.18,0.04512857142857147,-7.737023661443488,7.6999999999999975,-7.700000000000003,SELL,115826831261,-0.06798999999999408,False
2025-08-11T18:08:48.902901,XRPUSDT,buy,3.1848,0.04512857142857147,7.737023661443488,-7.700000000000003,7.6999999999999975,BUY,115826907939,-0.03102999999999472,False
2025-08-11T18:12:16.383910,XRPUSDT,buy,3.1882,0.04512857142857147,7.679914069484007,0.0,7.6,BUY,115827329280,0.0,False
2025-08-11T18:12:17.348542,SOLUSDT,sell,177.77,2.1800000000000006,-0.15898328011467885,0.0,-0.15,SELL,135688486915,0.0,False
2025-08-11T18:12:18.267452,ADAUSDT,sell,0.7896,0.011985714285714275,-28.9163868241955,0.0,-28.0,SELL,56871585110,0.0,False
2025-08-11T18:14:59.478654,SOLUSDT,buy,177.75,2.1800000000000006,0.15898328011467885,-0.15,0.15,BUY,135688921717,-0.003000000000001535,False
2025-08-11T18:23:59.927320,TRXUSDT,buy,0.344,0.0012357142857142925,280.75222267051873,0.0,280.0,BUY,15795276181,0.0,False
2025-08-11T18:25:24.064667,SOLUSDT,buy,177.72,2.1800000000000006,0.15914198729357795,0.0,0.15,BUY,135690683503,0.0,False
2025-08-11T18:25:25.099184,ADAUSDT,sell,0.7912,0.012007142857142843,-28.8935957894111,0.0,-28.0,SELL,56871840803,0.0,False
2025-08-11T18:32:06.837350,ADAUSDT,buy,0.793,0.012149999999999985,28.55387097119345,-28.0,28.0,BUY,56871964497,0.050400000000000666,False
2025-08-11T18:32:07.876801,BNBUSDT,buy,808.33,7.775714285714311,0.0446170627613447,0.0,0.04,BUY,74141941775,0.0,False
2025-08-11T18:36:28.125801,TRXUSDT,buy,0.3444,0.0012357142857142925,280.22373047976726,0.0,280.0,BUY,15795374602,0.0,False
2025-08-11T18:39:56.445513,SOLUSDT,buy,178.26,2.182142857142858,0.15868643329950896,0.0,0.15,BUY,135693160326,0.0,False
2025-08-11T18:39:57.500222,ADAUSDT,buy,0.7944,0.01223571428571427,28.300470153531855,0.0,28.0,BUY,56872103567,0.0,False
2025-08-11T18:43:37.154934,ADAUSDT,sell,0.7914,0.012242857142857127,-28.28395879404905,28.0,-28.0,SELL,56872182958,-0.08400000000000318,False
2025-08-11T18:47:18.677701,ADAUSDT,buy,0.7923,0.012242857142857127,28.28395879404905,-28.0,28.0,BUY,56872262749,-0.05880000000000285,False
2025-08-11T18:48:06.432864,ADAUSDT,sell,0.7919,0.012242857142857127,-28.28395879404905,28.0,-28.0,SELL,56872276442,-0.07000000000000162,False
2025-08-11T18:49:31.224197,ADAUSDT,buy,0.7923,0.012242857142857127,28.28395879404905,-28.0,28.0,BUY,56872302444,-0.05880000000000285,False
2025-08-11T18:54:29.605035,ADAUSDT,sell,0.7922,0.01225714285714284,-28.250993807109598,28.0,-28.0,SELL,56872407880,-0.06160000000000254,False
2025-08-11T18:55:54.902927,ADAUSDT,buy,0.7931,0.01225714285714284,28.250993807109598,-28.0,28.0,BUY,56872434180,-0.03640000000000221,False
2025-08-11T19:00:07.320579,ARBUSDT,buy,0.4515,0.007071428571428574,48.968389265656555,0.0,48.9,BUY,12991414393,0.0,False
2025-08-11T19:04:25.197286,XRPUSDT,sell,3.1995,0.04532142857142861,-7.640457899605983,0.0,-7.6,SELL,115833108463,0.0,False
2025-08-11T19:04:30.800662,OPUSDT,sell,0.769,0.013071428571428583,-26.491095832240415,-13.3,-26.4,SELL,16686943504,0.0,False
2025-08-11T19:05:13.436230,OPUSDT,buy,0.771,0.013071428571428583,26.491095832240415,-26.4,26.4,BUY,16686948874,0.039499999999999244,False
2025-08-11T19:05:51.178071,ADAUSDT,sell,0.7918,0.011699999999999988,-29.59627922649576,28.0,-29.0,SELL,56872613015,-0.07280000000000442,False
2025-08-11T19:05:55.039130,OPUSDT,sell,0.77,0.013071428571428583,-26.491095832240415,26.4,-26.4,SELL,16686955241,0.013099999999999223,False
2025-08-11T19:06:32.852828,ADAUSDT,buy,0.7922,0.011699999999999988,29.59627922649576,-29.0,29.0,BUY,56872624468,-0.061200000000002475,False
2025-08-11T19:07:23.852336,OPUSDT,buy,0.771,0.013071428571428583,26.491095832240415,-26.4,26.4,BUY,16686969401,0.039499999999999244,False
2025-08-11T19:08:06.223215,OPUSDT,sell,0.77,0.013071428571428583,-26.491095832240415,26.4,-26.4,SELL,16686975615,0.013099999999999223,False
2025-08-11T19:09:24.889690,ADAUSDT,sell,0.7918,0.011707142857142845,-29.57822170408789,29.0,-29.0,SELL,56872675974,-0.07280000000000442,False
2025-08-11T19:10:12.246774,OPUSDT,buy,0.771,0.013142857142857154,26.347122485326068,-26.4,26.300000000000004,BUY,16686994779,0.039499999999999244,False
2025-08-11T19:10:50.357739,ADAUSDT,buy,0.792,0.01173571428571427,29.50621142604995,-29.0,29.0,BUY,56872703843,-0.06700000000000184,False
2025-08-11T19:10:54.893487,OPUSDT,sell,0.77,0.013142857142857154,-26.347122485326068,26.300000000000004,-26.299999999999997,SELL,16687001750,0.013199999999999216,False
2025-08-11T19:11:32.830490,ADAUSDT,sell,0.7915,0.01173571428571427,-29.50621142604995,29.0,-29.0,SELL,56872718121,-0.08150000000000346,False
2025-08-11T19:11:36.598356,OPUSDT,buy,0.771,0.013142857142857154,26.347122485326068,-26.299999999999997,26.300000000000004,BUY,16687008245,0.03949999999999924,False
2025-08-11T19:13:10.743486,OPUSDT,sell,0.769,0.013142857142857154,-26.347122485326068,26.300000000000004,-26.299999999999997,SELL,16687021120,-0.01310000000000082,False
2025-08-11T19:23:48.259715,XRPUSDT,sell,3.1982,0.0462214285714286,-11.237530220908663,-7.6,-11.2,SELL,115835250928,0.0,False
2025-08-11T19:23:54.170110,OPUSDT,buy,0.771,0.013285714285714298,26.06382009301073,-26.299999999999997,26.0,BUY,16687118446,0.03949999999999922,False
2025-08-11T19:23:55.945485,DOGEUSDT,sell,0.23011,0.003720000000000001,-93.08507176075267,-70.0,-93.0,SELL,79318035359,0.0,False
2025-08-11T19:31:30.165123,OPUSDT,sell,0.77,0.013285714285714298,-26.06382009301073,26.0,-26.0,SELL,16687178476,0.0134999999999992,False
2025-08-11T19:35:42.064779,XRPUSDT,sell,3.1989,0.0462214285714286,-7.415037930304431,0.0,-7.4,SELL,115836625793,0.0,False
2025-08-11T19:35:42.948364,SOLUSDT,sell,178.2,2.117142857142856,-0.16188498801282059,0.0,-0.16,SELL,135702520786,0.0,False
2025-08-11T19:35:43.830942,ADAUSDT,buy,0.7923,0.011892857142857125,28.818444712912957,0.0,28.0,BUY,56873206982,0.0,False
2025-08-11T19:35:46.575267,ARBUSDT,sell,0.4513,0.007264285714285715,-47.18063957423795,0.0,-47.1,SELL,12991651287,0.0,False
2025-08-11T19:35:47.499976,OPUSDT,buy,0.771,0.013285714285714298,25.797156154301053,0.0,25.7,BUY,16687215585,0.0,False
2025-08-11T19:35:48.913773,DOGEUSDT,sell,0.22956,0.003744285714285714,-91.53512103586418,0.0,-91.0,SELL,79318769391,0.0,False
2025-08-11T19:37:07.134001,DOGEUSDT,sell,0.22905,0.003768571428571429,-136.4178651829037,-91.0,-136.0,SELL,79318862151,0.0,False
2025-08-11T20:03:22.144250,SOLUSDT,buy,176.45,2.2064285714285705,0.1552804148009065,0.0,0.15,BUY,135707849403,0.0,False
2025-08-11T20:03:23.203251,ADAUSDT,sell,0.7836,0.012299999999999993,-27.854889739837414,0.0,-27.0,SELL,56873888761,0.0,False
2025-08-11T20:06:55.357985,ADAUSDT,buy,0.785,0.012299999999999993,27.854889739837414,-27.0,27.0,BUY,56873955428,0.03780000000000183,False
2025-08-11T20:06:57.756513,TRXUSDT,sell,0.3446,0.0012642857142857217,-270.99502899434873,0.0,-270.0,SELL,15796103719,0.0,False
2025-08-11T20:07:37.937593,ADAUSDT,sell,0.7848,0.012328571428571427,-27.790336113557363,27.0,-27.0,SELL,56873971781,0.03240000000000243,False
2025-08-11T20:10:31.817710,ADAUSDT,buy,0.7851,0.012328571428571427,27.790336113557363,-27.0,27.0,BUY,56874024470,0.040500000000001535,False
2025-08-11T20:11:15.794526,ADAUSDT,sell,0.783,0.012328571428571427,-27.790336113557363,27.0,-27.0,SELL,56874041206,-0.016199999999998216,False
2025-08-11T20:32:53.865699,SOLUSDT,buy,176.3,2.2485714285714278,0.15245838695362138,0.0,0.15,BUY,135712907561,0.0,False
2025-08-11T20:32:54.640305,ADAUSDT,sell,0.7842,0.012385714285714286,-27.678143144752017,0.0,-27.0,SELL,56874454548,0.0,False
2025-08-11T20:32:55.846315,TRXUSDT,buy,0.3448,0.0012928571428571511,265.15966968508116,0.0,265.0,BUY,15796331475,0.0,False
2025-08-11T20:34:16.564576,TRXUSDT,buy,0.3444,0.0012928571428571511,265.15966968508116,0,265.0,BUY,15796343724,-0.05299999999999416,False
2025-08-11T20:41:51.448448,TRXUSDT,buy,0.3449,0.0012928571428571511,265.40432417126897,0.0,265.0,BUY,15796397432,0.0,False
